src/images/fb_white.svg

<?xml version="1.0" encoding="UTF-8"?>
<svg width="48px" height="48px" viewBox="0 0 48 48" version="1.1" xmlns="http://www.w3.org/2000/svg" xmlns:xlink="http://www.w3.org/1999/xlink">
    <!-- Generator: Sketch 42 (36781) - http://www.bohemiancoding.com/sketch -->
    <title>fb_white</title>
    <desc>Created with Sketch.</desc>
    <defs></defs>
    <g id="Welcome" stroke="none" stroke-width="1" fill="none" fill-rule="evenodd">
        <g id="fb_white" fill-rule="nonzero" fill="#FFFFFF">
            <g id="Facebook">
                <g id="Welcome">
                    <g id="Mobile-Portrait-Copy-15">
                        <g id="Facebook">
                            <path d="M0,24 C0,10.7451653 10.7451653,0 24,0 C37.2548347,0 48,10.7451653 48,24 C48,37.2548347 37.2548347,48 24,48 C10.7451653,48 0,37.2548347 0,24 Z M25.7015551,37.3114767 L25.7015551,24.2542096 L29.3059319,24.2542096 L29.7835896,19.7546031 L25.7015551,19.7546031 L25.7076789,17.5025067 C25.7076789,16.32894 25.8191834,15.7001161 27.5047641,15.7001161 L29.7580737,15.7001161 L29.7580737,11.2 L26.1531866,11.2 C21.8231375,11.2 20.2990725,13.3827933 20.2990725,17.0535652 L20.2990725,19.7551126 L17.6,19.7551126 L17.6,24.2547192 L20.2990725,24.2547192 L20.2990725,37.3114767 L25.7015551,37.3114767 Z" id="Combined-Shape"></path>
                        </g>
                    </g>
                </g>
            </g>
        </g>
    </g>
</svg>

<svg viewBox="0 0 48 48" xmlns="http://www.w3.org/2000/svg"><path d="M0 24C0 10.745 10.745 0 24 0s24 10.745 24 24-10.745 24-24 24S0 37.255 0 24zm25.702 13.311V24.254h3.604l.478-4.5h-4.082l.006-2.251c0-1.174.111-1.803 1.797-1.803h2.253v-4.5h-3.605c-4.33 0-5.854 2.183-5.854 5.854v2.701H17.6v4.5h2.7V37.31h5.402z" fill="#FFF"/></svg>
